img/svg/16/net/terminal.svg

<svg xmlns="http://www.w3.org/2000/svg" viewBox="0 0 16 16" enable-background="new 0 0 16 16"><g fill-rule="evenodd" clip-rule="evenodd" fill="#ccc"><path d="M1 2v12h14v-12h-14zm13 11h-12v-10h12v10zM13 4h-10v8h10v-8zm-6 5h-1v1h-1v1h-1v-1h1v-1h1v-1h-1v-1h-1v-1h1v1h1v1h1v1zm4 2h-3v-1h3v1z"/></g></svg>

<svg xmlns="http://www.w3.org/2000/svg" viewBox="0 0 16 16"><path fill="#ccc" fill-rule="evenodd" d="M1 2v12h14V2H1zm13 11H2V3h12v10zm-1-9H3v8h10V4zM7 9H6v1H5v1H4v-1h1V9h1V8H5V7H4V6h1v1h1v1h1v1zm4 2H8v-1h3v1z" clip-rule="evenodd"/></svg>
